src/assets/img/globalping/rest-api-icon.svg

<svg width="67" height="53" viewBox="0 0 67 53" fill="none" xmlns="http://www.w3.org/2000/svg">
<path d="M57.5364 10.2839L1.43555 14.2839V42.9695C1.43555 47.6118 5.37393 51.2794 10.0045 50.9493L50.1054 48.0901C54.2923 47.7915 57.5364 44.3078 57.5364 40.1103V10.2839Z" fill="white" stroke="#E7E7EE" stroke-width="2" stroke-miterlimit="10" stroke-linecap="round"/>
<path d="M49.708 1.99371L8.86659 4.90571C4.67972 5.20424 1.43555 8.68795 1.43555 12.8855V13.2838L57.5364 9.28384C57.5364 5.0427 53.9384 1.69209 49.708 1.99371Z" fill="#17233A" stroke="#E7E7EE" stroke-width="2" stroke-miterlimit="10" stroke-linecap="round"/>
<path d="M51.708 1.99371L10.8666 4.90571C6.67972 5.20424 3.43555 8.68795 3.43555 12.8855V13.2838L59.5364 9.28384C59.5364 5.0427 55.9384 1.69209 51.708 1.99371Z" fill="#E7E7EE" stroke="#E7E7EE" stroke-width="2" stroke-miterlimit="10" stroke-linecap="round"/>
<path d="M8.98164 10.9189C9.89809 10.9189 10.641 10.1759 10.641 9.25947C10.641 8.34303 9.89809 7.6001 8.98164 7.6001C8.06519 7.6001 7.32227 8.34303 7.32227 9.25947C7.32227 10.1759 8.06519 10.9189 8.98164 10.9189Z" fill="#B8B8CC"/>
<path d="M13.5983 10.5187C14.5147 10.5187 15.2577 9.77578 15.2577 8.85933C15.2577 7.94288 14.5147 7.19995 13.5983 7.19995C12.6818 7.19995 11.9389 7.94288 11.9389 8.85933C11.9389 9.77578 12.6818 10.5187 13.5983 10.5187Z" fill="#B8B8CC"/>
<path d="M18.2149 10.1715C19.1314 10.1715 19.8743 9.42861 19.8743 8.51216C19.8743 7.59571 19.1314 6.85278 18.2149 6.85278C17.2985 6.85278 16.5555 7.59571 16.5555 8.51216C16.5555 9.42861 17.2985 10.1715 18.2149 10.1715Z" fill="#B8B8CC"/>
<path d="M59.5364 9.28394L3.43555 13.2839V43.9695C3.43555 48.6118 7.37393 52.2794 12.0045 51.9493L52.1054 49.0901C56.2923 48.7915 59.5364 45.3078 59.5364 41.1103V9.28394Z" fill="white" stroke="#E7E7EE" stroke-width="2" stroke-miterlimit="10" stroke-linecap="round"/>
<g filter="url(#filter0_d_4018_9774)">
<path d="M58.0632 23.743L58.0654 23.746C58.9229 24.9137 59.4913 26.2608 59.7302 27.6782C60.2131 27.723 60.6897 27.8277 61.1488 27.9907C61.9091 28.2608 62.6049 28.6851 63.1915 29.2372L62.5062 29.9654L63.1915 29.2372C63.7782 29.7893 64.2428 30.4571 64.5552 31.1983C64.8677 31.9394 65.0209 32.7374 65.0049 33.541C64.9736 35.1837 64.3216 36.7534 63.1804 37.9404C62.0391 39.1274 60.4918 39.8454 58.8448 39.9551L58.8402 39.9554L26.1032 41.9845C25.0642 42.0632 24.0199 41.9271 23.0365 41.5847C22.0505 41.2414 21.147 40.6981 20.3836 39.989C19.6201 39.2798 19.0136 38.4202 18.6032 37.4647C18.1928 36.5093 17.9876 35.4792 18.001 34.4403L58.0632 23.743ZM58.0632 23.743C57.0234 22.3379 55.5964 21.2622 53.9554 20.6443L53.9526 20.6433M58.0632 23.743L53.9526 20.6433M53.9526 20.6433C52.2864 20.0216 50.4797 19.868 48.7314 20.1991C48.2178 20.2958 47.7139 20.4301 47.2237 20.6002C46.799 20.7476 46.2114 20.7232 45.6144 20.4928C45.0186 20.2628 44.5436 19.8769 44.3027 19.4705L44.3022 19.4697M53.9526 20.6433L44.3022 19.4697M44.3022 19.4697C43.6403 18.3552 42.7443 17.3958 41.6758 16.6563L41.6752 16.6558M44.3022 19.4697L41.6752 16.6558M41.6752 16.6558C40.6006 15.9134 39.3795 15.406 38.093 15.167L41.6752 16.6558ZM25.9082 26.0544C23.7862 26.222 21.8004 27.1656 20.338 28.7053C18.8631 30.2582 18.0283 32.3045 18.001 34.4402L25.9082 26.0544ZM25.9082 26.0544C25.8407 25.1473 25.9008 24.2334 26.0885 23.3392C26.3633 22.0274 26.8912 20.781 27.6428 19.6686C28.3982 18.549 29.3607 17.5821 30.479 16.819C31.5883 16.0599 32.835 15.5211 34.1501 15.2318L25.9082 26.0544ZM38.0928 15.167C36.7878 14.9243 35.4467 14.9463 34.1504 15.2318L38.0928 15.167Z" fill="#17D4A7" stroke="#69E7C8" stroke-width="2" stroke-linecap="round" stroke-linejoin="round"/>
</g>
<defs>
<filter id="filter0_d_4018_9774" x="4.00037" y="11" width="62.0057" height="39.0061" filterUnits="userSpaceOnUse" color-interpolation-filters="sRGB">
<feFlood flood-opacity="0" result="BackgroundImageFix"/>
<feColorMatrix in="SourceAlpha" type="matrix" values="0 0 0 0 0 0 0 0 0 0 0 0 0 0 0 0 0 0 127 0" result="hardAlpha"/>
<feOffset dx="-8" dy="2"/>
<feGaussianBlur stdDeviation="2.5"/>
<feComposite in2="hardAlpha" operator="out"/>
<feColorMatrix type="matrix" values="0 0 0 0 0.0919117 0 0 0 0 0.830339 0 0 0 0 0.653116 0 0 0 0.25 0"/>
<feBlend mode="normal" in2="BackgroundImageFix" result="effect1_dropShadow_4018_9774"/>
<feBlend mode="normal" in="SourceGraphic" in2="effect1_dropShadow_4018_9774" result="shape"/>
</filter>
</defs>
</svg>

<svg xmlns="http://www.w3.org/2000/svg" width="67" height="53" fill="none">
  <path fill="#fff" stroke="#E7E7EE" stroke-linecap="round" stroke-miterlimit="10" stroke-width="2" d="m57.536 10.284-56.1 4v28.685c0 4.643 3.938 8.31 8.569 7.98l40.1-2.859a8 8 0 0 0 7.431-7.98V10.284Z"/>
  <path fill="#17233A" stroke="#E7E7EE" stroke-linecap="round" stroke-miterlimit="10" stroke-width="2" d="M49.708 1.994 8.867 4.906a8 8 0 0 0-7.431 7.98v.398l56.1-4a7.309 7.309 0 0 0-7.828-7.29Z"/>
  <path fill="#E7E7EE" stroke="#E7E7EE" stroke-linecap="round" stroke-miterlimit="10" stroke-width="2" d="M51.708 1.994 10.867 4.906a8 8 0 0 0-7.431 7.98v.398l56.1-4a7.309 7.309 0 0 0-7.828-7.29Z"/>
  <path fill="#B8B8CC" d="M8.982 10.919a1.66 1.66 0 1 0 0-3.319 1.66 1.66 0 0 0 0 3.319Zm4.616-.4a1.66 1.66 0 1 0 0-3.32 1.66 1.66 0 0 0 0 3.32Zm4.617-.348a1.66 1.66 0 1 0 0-3.318 1.66 1.66 0 0 0 0 3.319Z"/>
  <path fill="#fff" stroke="#E7E7EE" stroke-linecap="round" stroke-miterlimit="10" stroke-width="2" d="m59.536 9.284-56.1 4v30.685c0 4.643 3.938 8.31 8.569 7.98l40.1-2.859a8 8 0 0 0 7.431-7.98V9.284Z"/>
  <g filter="url(#a)">
    <path fill="#17D4A7" stroke="#69E7C8" stroke-linecap="round" stroke-linejoin="round" stroke-width="2" d="m58.063 23.743.002.003a9.237 9.237 0 0 1 1.665 3.932 5.857 5.857 0 0 1 3.462 1.56l-.686.727.685-.728a5.771 5.771 0 0 1 1.364 1.961 5.73 5.73 0 0 1 .45 2.343 6.527 6.527 0 0 1-1.825 4.4 6.625 6.625 0 0 1-4.335 2.014h-.005l-32.737 2.03a7.586 7.586 0 0 1-3.067-.4 7.541 7.541 0 0 1-2.652-1.596 7.469 7.469 0 0 1-1.78-2.524A7.42 7.42 0 0 1 18 34.44l40.062-10.697Zm0 0a9.096 9.096 0 0 0-4.108-3.099h-.002m4.11 3.099-4.11-3.1m0 0a9.75 9.75 0 0 0-5.222-.444c-.513.097-1.017.231-1.507.401-.425.148-1.013.123-1.61-.107-.595-.23-1.07-.616-1.311-1.022v-.001m9.65 1.173-9.65-1.173m0 0a9.03 9.03 0 0 0-2.627-2.814h0m2.626 2.814-2.627-2.814m0 0a9.287 9.287 0 0 0-3.582-1.489l3.582 1.489Zm-15.767 9.398a8.618 8.618 0 0 0-5.57 2.651 8.485 8.485 0 0 0-2.337 5.735l7.907-8.386Zm0 0a9.709 9.709 0 0 1 .18-2.715 10.345 10.345 0 0 1 1.555-3.67 10.687 10.687 0 0 1 2.836-2.85 10.492 10.492 0 0 1 3.671-1.587l-8.242 10.822Zm12.185-10.887a9.909 9.909 0 0 0-3.943.065l3.943-.065Z"/>
  </g>
  <defs>
    <filter id="a" width="62.006" height="39.006" x="4" y="11" color-interpolation-filters="sRGB" filterUnits="userSpaceOnUse">
      <feFlood flood-opacity="0" result="BackgroundImageFix"/>
      <feColorMatrix in="SourceAlpha" result="hardAlpha" values="0 0 0 0 0 0 0 0 0 0 0 0 0 0 0 0 0 0 127 0"/>
      <feOffset dx="-8" dy="2"/>
      <feGaussianBlur stdDeviation="2.5"/>
      <feComposite in2="hardAlpha" operator="out"/>
      <feColorMatrix values="0 0 0 0 0.0919117 0 0 0 0 0.830339 0 0 0 0 0.653116 0 0 0 0.25 0"/>
      <feBlend in2="BackgroundImageFix" result="effect1_dropShadow_4018_9774"/>
      <feBlend in="SourceGraphic" in2="effect1_dropShadow_4018_9774" result="shape"/>
    </filter>
  </defs>
</svg>
